X: 1511
T: Polonäs ur Anders Fredrik Alards notbok nr 25
S: efter Anders Fredrik Alard
B: Anders Fredrik Alards notbok
M: 3/4
L: 1/16
B: [[http://www.smus.se/earkiv/fmk/browselarge.php?lang=sw&katalogid=M+131&bildnr=00011|SMUS - katalog M131 bild 11]] nr 25
B: Jämför [[Notböcker/John Johanssons noter]] [[http://www.sormlandsmusikarkiv.se/noter/johansson_john/john_johansson.html|samling 2]] (sida 66 polonäs nr 80)
B: Jämför [[http://www.smus.se/earkiv/fmk/browselarge.php?lang=sw&katalogid=M+129&bildnr=00005|SMUS - katalog M129 bild 5]] nr 8 (kanske inte samma låt, men liknande form)
B: Jämför [[http://www.smus.se/earkiv/fmk/browselarge.php?lang=sw&katalogid=M+46&bildnr=00009|SMUS - katalog M46 bild 9]] nr 16 ur [[Notböcker/Nils-Johan Nybergs notbok]]
O: Östergötland
R: Polonäs
Z: Nils L
K: G
GABc d2d2 B2G2 | c2>e2 d2dc B2G2 | cBce d4 g2B2 | AcAF G4 G4 ::
defg a2a2 f2d2 | gfgb a2a2 f2d2 | g2>b2 a4 g4 | f2e2 e4 d4 |
dcBc dcBc dcBc | d2g2 d2cB c4 | cBAB cBAB cBAB | c2a2 c2BA B4 |
GABc d2d2 B2G2 | cBce d2dc B2G2 | cBce d4 g2B2 | BcBA A4 G4 :|
(:musicend:)
(:music:)
